.local/share/icons/Gruvbox-Plus-Dark/panel/16/mic-volume-medium.svg

<svg width="16" height="16" version="1.1" xmlns="http://www.w3.org/2000/svg">
  <defs>
    <style id="current-color-scheme" type="text/css">.ColorScheme-Text { color:#ebdbb2; } .ColorScheme-Highlight { color:#458588; } .ColorScheme-NeutralText { color:#fe8019; } .ColorScheme-PositiveText { color:#689d6a; } .ColorScheme-NegativeText { color:#fb4934; }</style>
  </defs>
  <path class="ColorScheme-Text" d="m5 6v2.002c0 1.662 1.338 2.998 3 2.998s3-1.336 3-2.998v-2.002z" fill="currentColor"/>
  <path class="ColorScheme-Text" d="m2 7v0.999c0 2.966 2 6.001 5 6.001v2h2v-2c3 0 5-3.035 5-6.001v-0.999h-2v0.999c0 2.234-1.767 4.001-4 4.001s-4-1.767-4-4.001v-0.999z" fill="currentColor"/>
  <path class="ColorScheme-Text" d="m8 1c-1.662 0-3 1.338-3 3v2h6v-2c0-1.662-1.338-3-3-3z" fill="currentColor" opacity=".3"/>
</svg>

<svg xmlns="http://www.w3.org/2000/svg" width="16" height="16" version="1.1">
 <defs>
  <style id="current-color-scheme" type="text/css">
   .ColorScheme-Text { color:#ebdbb2; } .ColorScheme-Highlight { color:#458588; }
  </style>
 </defs>
 <path style="fill:currentColor" class="ColorScheme-Text" d="M 5,6 V 8.002 C 5,9.664 6.3379,11 8,11 9.662,11 11,9.664 11,8.002 V 6 Z"/>
 <path style="fill:currentColor" class="ColorScheme-Text" d="M 2,7 V 7.999 C 2,10.965 4,14 7,14 V 16 H 9 V 14 C 12,14 14,10.965 14,7.999 V 7 H 12 V 7.999 C 12,10.233 10.233,12 8,12 5.7666,12 4,10.233 4,7.999 V 7 Z"/>
 <path style="opacity:0.3;fill:currentColor" class="ColorScheme-Text" d="M 8,0 C 6.3379,0 5,1.3381 5,3 V 6 H 11 V 3 C 11,1.3381 9.662,0 8,0 Z"/>
</svg>
